X: 1
T: Hielan'man, The
M: 4/4
L: 1/8
R: reel
K: Cmaj
|:c2 ec gcec|c2 eg ageg|c2e2 g2^f2|gage dBGB:|
|:A2 (3^cBA eA^cA|A2 ^cA dBGB|
A2 (3^cBA Ae^cA|e^fge dBGB:|
